X: 25737
T: Mary McMahon
R: reel
M: 4/4
K: Gmajor
|:BGAF G2DC|B,CDE =FDCE|DG~G2 BGAG|^FG AB c2dc|
BGAF G2DC|B,CDE =FDCE|DG~G2 BGA^F|DGGF G3A:|
|:~B3c d2cd|ecdc BGGA|~B3c dBcd|ecdB c2dc|
~B3c d2cd|ecdc BGGd|ecdB cBAG|FG AB c2dc:|

